X:225
T:Sunset, The
M:C|
L:1/8
C:Cathal McConnell and Seamus Quinn
R:slow reel
D:Frankie Kennedy and Mairad N Mhaonaigh: Altan
Z:Devin McCabe
K:D
c~F3 Bcdc|BG (3Bcd deed|=cdeg d2Ad|dfed (3B^cd ed|
!c~F3 Bcdc|BG (3Bcd deed|=cdeg fde^c|1dfec d2ed:|2dfec d2ag||
!|:fdfg gagf|e=cef g3a|fggf gfe^c|dfed (3B^cd ed|
!c~F3 c2dc|BG (3Bcd deed|=cdeg fde^c|1dfec d2ag:|2dfec d2ed||
